assets/Trophy/Flat/trophy_flat.svg

<svg width="32" height="32" viewBox="0 0 32 32" fill="none" xmlns="http://www.w3.org/2000/svg">
<path d="M10.5208 7.52114C10.0012 5.7093 8.1239 4.65179 6.30748 5.15196C6.27354 5.1604 6.20545 5.17748 6.14394 5.19799C3.65095 6.02898 3.45292 9.41201 5.68876 10.6483L10.6585 13.3981C11.0772 13.6298 11.6044 13.4782 11.8361 13.0595C12.0678 12.6408 11.9161 12.1135 11.4974 11.8819L6.52712 9.13168C5.54516 8.58886 5.70443 7.17631 6.68631 6.84385L6.69246 6.84216C6.70347 6.83922 6.7167 6.8359 6.73807 6.83055C6.74577 6.82863 6.75344 6.8266 6.76109 6.82446C7.66072 6.57309 8.59583 7.09488 8.85505 7.99882C8.98695 8.45881 9.46678 8.72477 9.92677 8.59286C10.3868 8.46095 10.6527 7.98112 10.5208 7.52114Z" fill="#D3883E"/>
<path d="M22.4608 7.99882C22.72 7.09488 23.6552 6.57309 24.5548 6.82446C24.5624 6.8266 24.5701 6.82863 24.5778 6.83055C24.5992 6.8359 24.6124 6.83922 24.6234 6.84216L24.6296 6.84385C25.6114 7.17631 25.7704 8.58902 24.7884 9.13185L19.8184 11.8819C19.3997 12.1135 19.2481 12.6408 19.4798 13.0595C19.7115 13.4782 20.2387 13.6298 20.6574 13.3981L25.6274 10.6481C27.8633 9.41184 27.6649 6.02898 25.1719 5.19799C25.1104 5.17748 25.0423 5.1604 25.0084 5.15196C23.192 4.65179 21.3146 5.7093 20.7951 7.52114C20.6632 7.98112 20.9291 8.46095 21.3891 8.59286C21.8491 8.72477 22.3289 8.45881 22.4608 7.99882Z" fill="#D3883E"/>
<path d="M17.328 17.51V13.29H13.9879V17.51C13.9879 18.25 13.658 18.96 13.088 19.43L11.168 21.03H20.1479L18.228 19.43C17.658 18.95 17.328 18.25 17.328 17.51Z" fill="#D3883E"/>
<path d="M15.658 16.54C11.808 16.54 8.68799 13.42 8.68799 9.56999V2.70999C8.68799 2.31999 9.00798 2 9.39798 2H21.928C22.318 2 22.638 2.31999 22.638 2.70999V9.56999C22.638 13.42 19.518 16.54 15.658 16.54Z" fill="#FFB02E"/>
<path d="M22.7923 21.03H8.19719C7.42737 21.03 6.77355 21.54 6.62592 22.25L5.01245 29.34C4.93863 29.67 5.20226 29.98 5.56081 29.98H25.4392C25.7977 29.98 26.0614 29.67 25.9876 29.34L24.3741 22.25C24.2159 21.54 23.5621 21.03 22.7923 21.03Z" fill="#6D4534"/>
<path d="M18.383 23.96H12.617C12.2817 23.96 12.004 24.24 12.004 24.6V26.41C12.004 26.76 12.2721 27.05 12.617 27.05H18.383C18.7183 27.05 18.996 26.77 18.996 26.41V24.6C18.996 24.25 18.7278 23.96 18.383 23.96Z" fill="#FFB02E"/>
</svg>

<svg xmlns="http://www.w3.org/2000/svg" width="32" height="32" fill="none"><path fill="#D3883E" d="M10.52 7.521a3.435 3.435 0 0 0-4.213-2.369 2.28 2.28 0 0 0-.163.046c-2.493.831-2.691 4.214-.455 5.45l4.97 2.75a.866.866 0 1 0 .838-1.516l-4.97-2.75c-.982-.543-.823-1.956.16-2.288l.005-.002a3.258 3.258 0 0 1 .07-.018c.899-.25 1.834.27 2.093 1.175a.866.866 0 1 0 1.666-.478ZM22.46 7.999a1.702 1.702 0 0 1 2.118-1.168l.045.011.007.002c.981.332 1.14 1.745.158 2.288l-4.97 2.75a.866.866 0 1 0 .84 1.516l4.97-2.75c2.235-1.236 2.037-4.619-.456-5.45a2.284 2.284 0 0 0-.164-.046 3.435 3.435 0 0 0-4.213 2.37.866.866 0 1 0 1.666.477ZM17.328 17.51v-4.22h-3.34v4.22c0 .74-.33 1.45-.9 1.92l-1.92 1.6h8.98l-1.92-1.6a2.51 2.51 0 0 1-.9-1.92Z"/><path fill="#FFB02E" d="M15.658 16.54a6.97 6.97 0 0 1-6.97-6.97V2.71c0-.39.32-.71.71-.71h12.53c.39 0 .71.32.71.71v6.86c0 3.85-3.12 6.97-6.98 6.97Z"/><path fill="#6D4534" d="M22.792 21.03H8.197c-.77 0-1.423.51-1.571 1.22l-1.614 7.09c-.073.33.19.64.549.64h19.878c.359 0 .622-.31.549-.64l-1.614-7.09c-.158-.71-.812-1.22-1.582-1.22Z"/><path fill="#FFB02E" d="M18.383 23.96h-5.766a.625.625 0 0 0-.613.64v1.81c0 .35.268.64.613.64h5.766c.335 0 .613-.28.613-.64V24.6c0-.35-.268-.64-.613-.64Z"/></svg>
